svg/u1f9f1.svg

<svg viewBox="0 0 128 128" xmlns="http://www.w3.org/2000/svg">
  <g>
    <path d="M119.56,124H8.45c-2.45,0-4.44-1.99-4.44-4.44V8.44C4.01,5.99,6,4,8.45,4h111.11 c2.45,0,4.44,1.99,4.44,4.44v111.12C124,122.01,122.01,124,119.56,124z" fill="#E0E0E0"/>
    <g>
      <g>
        <path d="M39.65,17.91H5.91c-1.05,0-1.9-0.85-1.9-1.9V7.28c0-1.05,0.85-1.9,1.9-1.9h33.74 c1.05,0,1.9,0.85,1.9,1.9V16C41.55,17.05,40.7,17.91,39.65,17.91z" fill="#751C00"/>
        <path d="M80.87,17.91H47.14c-1.05,0-1.9-0.85-1.9-1.9V7.28c0-1.05,0.85-1.9,1.9-1.9h33.74 c1.05,0,1.9,0.85,1.9,1.9V16C82.77,17.05,81.92,17.91,80.87,17.91z" fill="#751C00"/>
        <path d="M122.1,17.91H88.36c-1.05,0-1.9-0.85-1.9-1.9V7.28c0-1.05,0.85-1.9,1.9-1.9h33.74 c1.05,0,1.9,0.85,1.9,1.9V16C124,17.05,123.15,17.91,122.1,17.91z" fill="#751C00"/>
      </g>
      <g>
        <path d="M39.65,53.27H5.91c-1.05,0-1.9-0.85-1.9-1.9v-8.72c0-1.05,0.85-1.9,1.9-1.9h33.74 c1.05,0,1.9,0.85,1.9,1.9v8.72C41.55,52.42,40.7,53.27,39.65,53.27z" fill="#751C00"/>
        <path d="M80.87,53.27H47.14c-1.05,0-1.9-0.85-1.9-1.9v-8.72c0-1.05,0.85-1.9,1.9-1.9h33.74 c1.05,0,1.9,0.85,1.9,1.9v8.72C82.77,52.42,81.92,53.27,80.87,53.27z" fill="#751C00"/>
        <path d="M122.1,53.27H88.36c-1.05,0-1.9-0.85-1.9-1.9v-8.72c0-1.05,0.85-1.9,1.9-1.9h33.74 c1.05,0,1.9,0.85,1.9,1.9v8.72C124,52.42,123.15,53.27,122.1,53.27z" fill="#751C00"/>
      </g>
      <g>
        <path d="M39.65,88.64H5.91c-1.05,0-1.9-0.85-1.9-1.9v-8.72c0-1.05,0.85-1.9,1.9-1.9h33.74 c1.05,0,1.9,0.85,1.9,1.9v8.72C41.55,87.78,40.7,88.64,39.65,88.64z" fill="#751C00"/>
        <path d="M80.87,88.64H47.14c-1.05,0-1.9-0.85-1.9-1.9v-8.72c0-1.05,0.85-1.9,1.9-1.9h33.74 c1.05,0,1.9,0.85,1.9,1.9v8.72C82.77,87.78,81.92,88.64,80.87,88.64z" fill="#751C00"/>
        <path d="M122.1,88.64H88.36c-1.05,0-1.9-0.85-1.9-1.9v-8.72c0-1.05,0.85-1.9,1.9-1.9h33.74 c1.05,0,1.9,0.85,1.9,1.9v8.72C124,87.78,123.15,88.64,122.1,88.64z" fill="#751C00"/>
      </g>
      <g>
        <path d="M39.65,124H5.91c-1.05,0-1.9-0.85-1.9-1.9v-8.72c0-1.05,0.85-1.9,1.9-1.9h33.74 c1.05,0,1.9,0.85,1.9,1.9v8.72C41.55,123.15,40.7,124,39.65,124z" fill="#751C00"/>
        <path d="M80.87,124H47.14c-1.05,0-1.9-0.85-1.9-1.9v-8.72c0-1.05,0.85-1.9,1.9-1.9h33.74 c1.05,0,1.9,0.85,1.9,1.9v8.72C82.77,123.15,81.92,124,80.87,124z" fill="#751C00"/>
        <path d="M122.1,124H88.36c-1.05,0-1.9-0.85-1.9-1.9v-8.72c0-1.05,0.85-1.9,1.9-1.9h33.74 c1.05,0,1.9,0.85,1.9,1.9v8.72C124,123.15,123.15,124,122.1,124z" fill="#751C00"/>
      </g>
      <g>
        <path d="M19.52,23.06H4v12.53h15.52c1.05,0,1.9-0.85,1.9-1.9v-8.72C21.42,23.91,20.57,23.06,19.52,23.06z " fill="#751C00"/>
        <path d="M60.42,35.59H26.69c-1.05,0-1.9-0.85-1.9-1.9v-8.72c0-1.05,0.85-1.9,1.9-1.9h33.74 c1.05,0,1.9,0.85,1.9,1.9v8.72C62.32,34.74,61.47,35.59,60.42,35.59z" fill="#751C00"/>
        <path d="M101.32,35.59H67.59c-1.05,0-1.9-0.85-1.9-1.9v-8.72c0-1.05,0.85-1.9,1.9-1.9h33.74 c1.05,0,1.9,0.85,1.9,1.9v8.72C103.22,34.74,102.37,35.59,101.32,35.59z" fill="#751C00"/>
        <path d="M108.49,23.06c-1.05,0-1.9,0.85-1.9,1.9v8.72c0,1.05,0.85,1.9,1.9,1.9H124V23.06H108.49z" fill="#751C00"/>
      </g>
      <g>
        <path d="M19.52,58.43H4v12.53h15.52c1.05,0,1.9-0.85,1.9-1.9v-8.72C21.42,59.28,20.57,58.43,19.52,58.43z " fill="#751C00"/>
        <path d="M60.42,70.95H26.69c-1.05,0-1.9-0.85-1.9-1.9v-8.72c0-1.05,0.85-1.9,1.9-1.9h33.74 c1.05,0,1.9,0.85,1.9,1.9v8.72C62.32,70.1,61.47,70.95,60.42,70.95z" fill="#751C00"/>
        <path d="M101.32,70.95H67.59c-1.05,0-1.9-0.85-1.9-1.9v-8.72c0-1.05,0.85-1.9,1.9-1.9h33.74 c1.05,0,1.9,0.85,1.9,1.9v8.72C103.22,70.1,102.37,70.95,101.32,70.95z" fill="#751C00"/>
        <path d="M108.49,58.43c-1.05,0-1.9,0.85-1.9,1.9v8.72c0,1.05,0.85,1.9,1.9,1.9H124V58.43H108.49z" fill="#751C00"/>
      </g>
      <g>
        <path d="M19.52,93.79H4v12.53h15.52c1.05,0,1.9-0.85,1.9-1.9v-8.72C21.42,94.64,20.57,93.79,19.52,93.79z " fill="#751C00"/>
        <path d="M60.42,106.32H26.69c-1.05,0-1.9-0.85-1.9-1.9v-8.72c0-1.05,0.85-1.9,1.9-1.9h33.74 c1.05,0,1.9,0.85,1.9,1.9v8.72C62.32,105.47,61.47,106.32,60.42,106.32z" fill="#751C00"/>
        <path d="M101.32,106.32H67.59c-1.05,0-1.9-0.85-1.9-1.9v-8.72c0-1.05,0.85-1.9,1.9-1.9h33.74 c1.05,0,1.9,0.85,1.9,1.9v8.72C103.22,105.47,102.37,106.32,101.32,106.32z" fill="#751C00"/>
        <path d="M108.49,93.79c-1.05,0-1.9,0.85-1.9,1.9v8.72c0,1.05,0.85,1.9,1.9,1.9H124V93.79H108.49z" fill="#751C00"/>
      </g>
    </g>
    <g>
      <g>
        <path d="M39.65,16.53H5.91c-1.05,0-1.9-0.85-1.9-1.9V5.9c0-1.05,0.85-1.9,1.9-1.9h33.74 c1.05,0,1.9,0.85,1.9,1.9v8.72C41.55,15.67,40.7,16.53,39.65,16.53z" fill="#E04E2C"/>
        <path d="M80.87,16.53H47.14c-1.05,0-1.9-0.85-1.9-1.9V5.9c0-1.05,0.85-1.9,1.9-1.9h33.74 c1.05,0,1.9,0.85,1.9,1.9v8.72C82.77,15.67,81.92,16.53,80.87,16.53z" fill="#BF360C"/>
        <path d="M122.1,16.53H88.36c-1.05,0-1.9-0.85-1.9-1.9V5.9c0-1.05,0.85-1.9,1.9-1.9h33.74 c1.05,0,1.9,0.85,1.9,1.9v8.72C124,15.67,123.15,16.53,122.1,16.53z" fill="#E04E2C"/>
      </g>
      <g>
        <path d="M39.65,51.89H5.91c-1.05,0-1.9-0.85-1.9-1.9v-8.72c0-1.05,0.85-1.9,1.9-1.9h33.74 c1.05,0,1.9,0.85,1.9,1.9v8.72C41.55,51.04,40.7,51.89,39.65,51.89z" fill="#E04E2C"/>
        <path d="M80.87,51.89H47.14c-1.05,0-1.9-0.85-1.9-1.9v-8.72c0-1.05,0.85-1.9,1.9-1.9h33.74 c1.05,0,1.9,0.85,1.9,1.9v8.72C82.77,51.04,81.92,51.89,80.87,51.89z" fill="#E04E2C"/>
        <path d="M122.1,51.89H88.36c-1.05,0-1.9-0.85-1.9-1.9v-8.72c0-1.05,0.85-1.9,1.9-1.9h33.74 c1.05,0,1.9,0.85,1.9,1.9v8.72C124,51.04,123.15,51.89,122.1,51.89z" fill="#BF360C"/>
      </g>
      <g>
        <path d="M39.65,87.26H5.91c-1.05,0-1.9-0.85-1.9-1.9v-8.72c0-1.05,0.85-1.9,1.9-1.9h33.74 c1.05,0,1.9,0.85,1.9,1.9v8.72C41.55,86.4,40.7,87.26,39.65,87.26z" fill="#E04E2C"/>
        <path d="M80.87,87.26H47.14c-1.05,0-1.9-0.85-1.9-1.9v-8.72c0-1.05,0.85-1.9,1.9-1.9h33.74 c1.05,0,1.9,0.85,1.9,1.9v8.72C82.77,86.4,81.92,87.26,80.87,87.26z" fill="#BF360C"/>
        <path d="M122.1,87.26H88.36c-1.05,0-1.9-0.85-1.9-1.9v-8.72c0-1.05,0.85-1.9,1.9-1.9h33.74 c1.05,0,1.9,0.85,1.9,1.9v8.72C124,86.4,123.15,87.26,122.1,87.26z" fill="#E04E2C"/>
      </g>
      <g>
        <path d="M39.65,122.62H5.91c-1.05,0-1.9-0.85-1.9-1.9V112c0-1.05,0.85-1.9,1.9-1.9h33.74 c1.05,0,1.9,0.85,1.9,1.9v8.72C41.55,121.77,40.7,122.62,39.65,122.62z" fill="#E04E2C"/>
        <path d="M80.87,122.62H47.14c-1.05,0-1.9-0.85-1.9-1.9V112c0-1.05,0.85-1.9,1.9-1.9h33.74 c1.05,0,1.9,0.85,1.9,1.9v8.72C82.77,121.77,81.92,122.62,80.87,122.62z" fill="#E04E2C"/>
        <path d="M122.1,122.62H88.36c-1.05,0-1.9-0.85-1.9-1.9V112c0-1.05,0.85-1.9,1.9-1.9h33.74 c1.05,0,1.9,0.85,1.9,1.9v8.72C124,121.77,123.15,122.62,122.1,122.62z" fill="#BF360C"/>
      </g>
      <g>
        <path d="M19.52,21.68H4v12.53h15.52c1.05,0,1.9-0.85,1.9-1.9v-8.72C21.42,22.53,20.57,21.68,19.52,21.68z " fill="#BF360C"/>
        <path d="M60.42,34.21H26.69c-1.05,0-1.9-0.85-1.9-1.9v-8.72c0-1.05,0.85-1.9,1.9-1.9h33.74 c1.05,0,1.9,0.85,1.9,1.9v8.72C62.32,33.36,61.47,34.21,60.42,34.21z" fill="#E04E2C"/>
        <path d="M101.32,34.21H67.59c-1.05,0-1.9-0.85-1.9-1.9v-8.72c0-1.05,0.85-1.9,1.9-1.9h33.74 c1.05,0,1.9,0.85,1.9,1.9v8.72C103.22,33.36,102.37,34.21,101.32,34.21z" fill="#FF7043"/>
        <path d="M108.49,21.68c-1.05,0-1.9,0.85-1.9,1.9v8.72c0,1.05,0.85,1.9,1.9,1.9H124V21.68H108.49z" fill="#E04E2C"/>
      </g>
      <g>
        <path d="M19.52,57.05H4v12.53h15.52c1.05,0,1.9-0.85,1.9-1.9v-8.72C21.42,57.9,20.57,57.05,19.52,57.05z" fill="#E04E2C"/>
        <path d="M60.42,69.57H26.69c-1.05,0-1.9-0.85-1.9-1.9v-8.72c0-1.05,0.85-1.9,1.9-1.9h33.74 c1.05,0,1.9,0.85,1.9,1.9v8.72C62.32,68.72,61.47,69.57,60.42,69.57z" fill="#FF7043"/>
        <path d="M101.32,69.57H67.59c-1.05,0-1.9-0.85-1.9-1.9v-8.72c0-1.05,0.85-1.9,1.9-1.9h33.74 c1.05,0,1.9,0.85,1.9,1.9v8.72C103.22,68.72,102.37,69.57,101.32,69.57z" fill="#E04E2C"/>
        <path d="M108.49,57.05c-1.05,0-1.9,0.85-1.9,1.9v8.72c0,1.05,0.85,1.9,1.9,1.9H124V57.05H108.49z" fill="#E04E2C"/>
      </g>
      <g>
        <path d="M19.52,92.41H4v12.53h15.52c1.05,0,1.9-0.85,1.9-1.9v-8.72C21.42,93.26,20.57,92.41,19.52,92.41z " fill="#BF360C"/>
        <path d="M60.42,104.94H26.69c-1.05,0-1.9-0.85-1.9-1.9v-8.72c0-1.05,0.85-1.9,1.9-1.9h33.74 c1.05,0,1.9,0.85,1.9,1.9v8.72C62.32,104.09,61.47,104.94,60.42,104.94z" fill="#E04E2C"/>
        <path d="M101.32,104.94H67.59c-1.05,0-1.9-0.85-1.9-1.9v-8.72c0-1.05,0.85-1.9,1.9-1.9h33.74 c1.05,0,1.9,0.85,1.9,1.9v8.72C103.22,104.09,102.37,104.94,101.32,104.94z" fill="#E04E2C"/>
        <path d="M108.49,92.41c-1.05,0-1.9,0.85-1.9,1.9v8.72c0,1.05,0.85,1.9,1.9,1.9H124V92.41H108.49z" fill="#FF7043"/>
      </g>
    </g>
  </g>
</svg>

<svg viewBox="0 0 128 128" xmlns="http://www.w3.org/2000/svg">
  <defs/>
  <path d="M119.56,124 L8.45,124 C6,124 4.01,122.01 4.01,119.56 L4.01,8.44 C4.01,5.99 6,4 8.45,4 L119.56,4 C122.01,4 124,5.99 124,8.44 L124,119.56 C124,122.01 122.01,124 119.56,124 Z" fill="#E0E0E0"/>
  <path d="M39.65,17.91 L5.91,17.91 C4.86,17.91 4.01,17.06 4.01,16.01 L4.01,7.28 C4.01,6.23 4.86,5.38 5.91,5.38 L39.65,5.38 C40.7,5.38 41.55,6.23 41.55,7.28 L41.55,16 C41.55,17.05 40.7,17.91 39.65,17.91 Z" fill="#751C00"/>
  <path d="M80.87,17.91 L47.14,17.91 C46.09,17.91 45.24,17.06 45.24,16.01 L45.24,7.28 C45.24,6.23 46.09,5.38 47.14,5.38 L80.88,5.38 C81.93,5.38 82.78,6.23 82.78,7.28 L82.78,16 C82.77,17.05 81.92,17.91 80.87,17.91 Z" fill="#751C00"/>
  <path d="M122.1,17.91 L88.36,17.91 C87.31,17.91 86.46,17.06 86.46,16.01 L86.46,7.28 C86.46,6.23 87.31,5.38 88.36,5.38 L122.1,5.38 C123.15,5.38 124,6.23 124,7.28 L124,16 C124,17.05 123.15,17.91 122.1,17.91 Z" fill="#751C00"/>
  <path d="M39.65,53.27 L5.91,53.27 C4.86,53.27 4.01,52.42 4.01,51.37 L4.01,42.65 C4.01,41.6 4.86,40.75 5.91,40.75 L39.65,40.75 C40.7,40.75 41.55,41.6 41.55,42.65 L41.55,51.37 C41.55,52.42 40.7,53.27 39.65,53.27 Z" fill="#751C00"/>
  <path d="M80.87,53.27 L47.14,53.27 C46.09,53.27 45.24,52.42 45.24,51.37 L45.24,42.65 C45.24,41.6 46.09,40.75 47.14,40.75 L80.88,40.75 C81.93,40.75 82.78,41.6 82.78,42.65 L82.78,51.37 C82.77,52.42 81.92,53.27 80.87,53.27 Z" fill="#751C00"/>
  <path d="M122.1,53.27 L88.36,53.27 C87.31,53.27 86.46,52.42 86.46,51.37 L86.46,42.65 C86.46,41.6 87.31,40.75 88.36,40.75 L122.1,40.75 C123.15,40.75 124,41.6 124,42.65 L124,51.37 C124,52.42 123.15,53.27 122.1,53.27 Z" fill="#751C00"/>
  <path d="M39.65,88.64 L5.91,88.64 C4.86,88.64 4.01,87.79 4.01,86.74 L4.01,78.02 C4.01,76.97 4.86,76.12 5.91,76.12 L39.65,76.12 C40.7,76.12 41.55,76.97 41.55,78.02 L41.55,86.74 C41.55,87.78 40.7,88.64 39.65,88.64 Z" fill="#751C00"/>
  <path d="M80.87,88.64 L47.14,88.64 C46.09,88.64 45.24,87.79 45.24,86.74 L45.24,78.02 C45.24,76.97 46.09,76.12 47.14,76.12 L80.88,76.12 C81.93,76.12 82.78,76.97 82.78,78.02 L82.78,86.74 C82.77,87.78 81.92,88.64 80.87,88.64 Z" fill="#751C00"/>
  <path d="M122.1,88.64 L88.36,88.64 C87.31,88.64 86.46,87.79 86.46,86.74 L86.46,78.02 C86.46,76.97 87.31,76.12 88.36,76.12 L122.1,76.12 C123.15,76.12 124,76.97 124,78.02 L124,86.74 C124,87.78 123.15,88.64 122.1,88.64 Z" fill="#751C00"/>
  <path d="M39.65,124 L5.91,124 C4.86,124 4.01,123.15 4.01,122.1 L4.01,113.38 C4.01,112.33 4.86,111.48 5.91,111.48 L39.65,111.48 C40.7,111.48 41.55,112.33 41.55,113.38 L41.55,122.1 C41.55,123.15 40.7,124 39.65,124 Z" fill="#751C00"/>
  <path d="M80.87,124 L47.14,124 C46.09,124 45.24,123.15 45.24,122.1 L45.24,113.38 C45.24,112.33 46.09,111.48 47.14,111.48 L80.88,111.48 C81.93,111.48 82.78,112.33 82.78,113.38 L82.78,122.1 C82.77,123.15 81.92,124 80.87,124 Z" fill="#751C00"/>
  <path d="M122.1,124 L88.36,124 C87.31,124 86.46,123.15 86.46,122.1 L86.46,113.38 C86.46,112.33 87.31,111.48 88.36,111.48 L122.1,111.48 C123.15,111.48 124,112.33 124,113.38 L124,122.1 C124,123.15 123.15,124 122.1,124 Z" fill="#751C00"/>
  <path d="M19.52,23.06 L4,23.06 L4,35.59 L19.52,35.59 C20.57,35.59 21.42,34.74 21.42,33.69 L21.42,24.97 C21.42,23.91 20.57,23.06 19.52,23.06 Z" fill="#751C00"/>
  <path d="M60.42,35.59 L26.69,35.59 C25.64,35.59 24.79,34.74 24.79,33.69 L24.79,24.97 C24.79,23.92 25.64,23.07 26.69,23.07 L60.43,23.07 C61.48,23.07 62.33,23.92 62.33,24.97 L62.33,33.69 C62.32,34.74 61.47,35.59 60.42,35.59 Z" fill="#751C00"/>
  <path d="M101.32,35.59 L67.59,35.59 C66.54,35.59 65.69,34.74 65.69,33.69 L65.69,24.97 C65.69,23.92 66.54,23.07 67.59,23.07 L101.33,23.07 C102.38,23.07 103.23,23.92 103.23,24.97 L103.23,33.69 C103.22,34.74 102.37,35.59 101.32,35.59 Z" fill="#751C00"/>
  <path d="M108.49,23.06 C107.44,23.06 106.59,23.91 106.59,24.96 L106.59,33.68 C106.59,34.73 107.44,35.58 108.49,35.58 L124,35.58 L124,23.06 L108.49,23.06 Z" fill="#751C00"/>
  <path d="M19.52,58.43 L4,58.43 L4,70.96 L19.52,70.96 C20.57,70.96 21.42,70.11 21.42,69.06 L21.42,60.34 C21.42,59.28 20.57,58.43 19.52,58.43 Z" fill="#751C00"/>
  <path d="M60.42,70.95 L26.69,70.95 C25.64,70.95 24.79,70.1 24.79,69.05 L24.79,60.33 C24.79,59.28 25.64,58.43 26.69,58.43 L60.43,58.43 C61.48,58.43 62.33,59.28 62.33,60.33 L62.33,69.05 C62.32,70.1 61.47,70.95 60.42,70.95 Z" fill="#751C00"/>
  <path d="M101.32,70.95 L67.59,70.95 C66.54,70.95 65.69,70.1 65.69,69.05 L65.69,60.33 C65.69,59.28 66.54,58.43 67.59,58.43 L101.33,58.43 C102.38,58.43 103.23,59.28 103.23,60.33 L103.23,69.05 C103.22,70.1 102.37,70.95 101.32,70.95 Z" fill="#751C00"/>
  <path d="M108.49,58.43 C107.44,58.43 106.59,59.28 106.59,60.33 L106.59,69.05 C106.59,70.1 107.44,70.95 108.49,70.95 L124,70.95 L124,58.43 L108.49,58.43 Z" fill="#751C00"/>
  <path d="M19.52,93.79 L4,93.79 L4,106.32 L19.52,106.32 C20.57,106.32 21.42,105.47 21.42,104.42 L21.42,95.7 C21.42,94.64 20.57,93.79 19.52,93.79 Z" fill="#751C00"/>
  <path d="M60.42,106.32 L26.69,106.32 C25.64,106.32 24.79,105.47 24.79,104.42 L24.79,95.7 C24.79,94.65 25.64,93.8 26.69,93.8 L60.43,93.8 C61.48,93.8 62.33,94.65 62.33,95.7 L62.33,104.42 C62.32,105.47 61.47,106.32 60.42,106.32 Z" fill="#751C00"/>
  <path d="M101.32,106.32 L67.59,106.32 C66.54,106.32 65.69,105.47 65.69,104.42 L65.69,95.7 C65.69,94.65 66.54,93.8 67.59,93.8 L101.33,93.8 C102.38,93.8 103.23,94.65 103.23,95.7 L103.23,104.42 C103.22,105.47 102.37,106.32 101.32,106.32 Z" fill="#751C00"/>
  <path d="M108.49,93.79 C107.44,93.79 106.59,94.64 106.59,95.69 L106.59,104.41 C106.59,105.46 107.44,106.31 108.49,106.31 L124,106.31 L124,93.79 L108.49,93.79 Z" fill="#751C00"/>
  <path d="M39.65,16.53 L5.91,16.53 C4.86,16.53 4.01,15.68 4.01,14.63 L4.01,5.9 C4.01,4.85 4.86,4 5.91,4 L39.65,4 C40.7,4 41.55,4.85 41.55,5.9 L41.55,14.62 C41.55,15.67 40.7,16.53 39.65,16.53 Z" fill="#E04E2C"/>
  <path d="M80.87,16.53 L47.14,16.53 C46.09,16.53 45.24,15.68 45.24,14.63 L45.24,5.9 C45.24,4.85 46.09,4 47.14,4 L80.88,4 C81.93,4 82.78,4.85 82.78,5.9 L82.78,14.62 C82.77,15.67 81.92,16.53 80.87,16.53 Z" fill="#BF360C"/>
  <path d="M122.1,16.53 L88.36,16.53 C87.31,16.53 86.46,15.68 86.46,14.63 L86.46,5.9 C86.46,4.85 87.31,4 88.36,4 L122.1,4 C123.15,4 124,4.85 124,5.9 L124,14.62 C124,15.67 123.15,16.53 122.1,16.53 Z" fill="#E04E2C"/>
  <path d="M39.65,51.89 L5.91,51.89 C4.86,51.89 4.01,51.04 4.01,49.99 L4.01,41.27 C4.01,40.22 4.86,39.37 5.91,39.37 L39.65,39.37 C40.7,39.37 41.55,40.22 41.55,41.27 L41.55,49.99 C41.55,51.04 40.7,51.89 39.65,51.89 Z" fill="#E04E2C"/>
  <path d="M80.87,51.89 L47.14,51.89 C46.09,51.89 45.24,51.04 45.24,49.99 L45.24,41.27 C45.24,40.22 46.09,39.37 47.14,39.37 L80.88,39.37 C81.93,39.37 82.78,40.22 82.78,41.27 L82.78,49.99 C82.77,51.04 81.92,51.89 80.87,51.89 Z" fill="#E04E2C"/>
  <path d="M122.1,51.89 L88.36,51.89 C87.31,51.89 86.46,51.04 86.46,49.99 L86.46,41.27 C86.46,40.22 87.31,39.37 88.36,39.37 L122.1,39.37 C123.15,39.37 124,40.22 124,41.27 L124,49.99 C124,51.04 123.15,51.89 122.1,51.89 Z" fill="#BF360C"/>
  <path d="M39.65,87.26 L5.91,87.26 C4.86,87.26 4.01,86.41 4.01,85.36 L4.01,76.64 C4.01,75.59 4.86,74.74 5.91,74.74 L39.65,74.74 C40.7,74.74 41.55,75.59 41.55,76.64 L41.55,85.36 C41.55,86.4 40.7,87.26 39.65,87.26 Z" fill="#E04E2C"/>
  <path d="M80.87,87.26 L47.14,87.26 C46.09,87.26 45.24,86.41 45.24,85.36 L45.24,76.64 C45.24,75.59 46.09,74.74 47.14,74.74 L80.88,74.74 C81.93,74.74 82.78,75.59 82.78,76.64 L82.78,85.36 C82.77,86.4 81.92,87.26 80.87,87.26 Z" fill="#BF360C"/>
  <path d="M122.1,87.26 L88.36,87.26 C87.31,87.26 86.46,86.41 86.46,85.36 L86.46,76.64 C86.46,75.59 87.31,74.74 88.36,74.74 L122.1,74.74 C123.15,74.74 124,75.59 124,76.64 L124,85.36 C124,86.4 123.15,87.26 122.1,87.26 Z" fill="#E04E2C"/>
  <path d="M39.65,122.62 L5.91,122.62 C4.86,122.62 4.01,121.77 4.01,120.72 L4.01,112 C4.01,110.95 4.86,110.1 5.91,110.1 L39.65,110.1 C40.7,110.1 41.55,110.95 41.55,112 L41.55,120.72 C41.55,121.77 40.7,122.62 39.65,122.62 Z" fill="#E04E2C"/>
  <path d="M80.87,122.62 L47.14,122.62 C46.09,122.62 45.24,121.77 45.24,120.72 L45.24,112 C45.24,110.95 46.09,110.1 47.14,110.1 L80.88,110.1 C81.93,110.1 82.78,110.95 82.78,112 L82.78,120.72 C82.77,121.77 81.92,122.62 80.87,122.62 Z" fill="#E04E2C"/>
  <path d="M122.1,122.62 L88.36,122.62 C87.31,122.62 86.46,121.77 86.46,120.72 L86.46,112 C86.46,110.95 87.31,110.1 88.36,110.1 L122.1,110.1 C123.15,110.1 124,110.95 124,112 L124,120.72 C124,121.77 123.15,122.62 122.1,122.62 Z" fill="#BF360C"/>
  <path d="M19.52,21.68 L4,21.68 L4,34.21 L19.52,34.21 C20.57,34.21 21.42,33.36 21.42,32.31 L21.42,23.59 C21.42,22.53 20.57,21.68 19.52,21.68 Z" fill="#BF360C"/>
  <path d="M60.42,34.21 L26.69,34.21 C25.64,34.21 24.79,33.36 24.79,32.31 L24.79,23.59 C24.79,22.54 25.64,21.69 26.69,21.69 L60.43,21.69 C61.48,21.69 62.33,22.54 62.33,23.59 L62.33,32.31 C62.32,33.36 61.47,34.21 60.42,34.21 Z" fill="#E04E2C"/>
  <path d="M101.32,34.21 L67.59,34.21 C66.54,34.21 65.69,33.36 65.69,32.31 L65.69,23.59 C65.69,22.54 66.54,21.69 67.59,21.69 L101.33,21.69 C102.38,21.69 103.23,22.54 103.23,23.59 L103.23,32.31 C103.22,33.36 102.37,34.21 101.32,34.21 Z" fill="#FF7043"/>
  <path d="M108.49,21.68 C107.44,21.68 106.59,22.53 106.59,23.58 L106.59,32.3 C106.59,33.35 107.44,34.2 108.49,34.2 L124,34.2 L124,21.68 L108.49,21.68 Z" fill="#E04E2C"/>
  <path d="M19.52,57.05 L4,57.05 L4,69.58 L19.52,69.58 C20.57,69.58 21.42,68.73 21.42,67.68 L21.42,58.96 C21.42,57.9 20.57,57.05 19.52,57.05 Z" fill="#E04E2C"/>
  <path d="M60.42,69.57 L26.69,69.57 C25.64,69.57 24.79,68.72 24.79,67.67 L24.79,58.95 C24.79,57.9 25.64,57.05 26.69,57.05 L60.43,57.05 C61.48,57.05 62.33,57.9 62.33,58.95 L62.33,67.67 C62.32,68.72 61.47,69.57 60.42,69.57 Z" fill="#FF7043"/>
  <path d="M101.32,69.57 L67.59,69.57 C66.54,69.57 65.69,68.72 65.69,67.67 L65.69,58.95 C65.69,57.9 66.54,57.05 67.59,57.05 L101.33,57.05 C102.38,57.05 103.23,57.9 103.23,58.95 L103.23,67.67 C103.22,68.72 102.37,69.57 101.32,69.57 Z" fill="#E04E2C"/>
  <path d="M108.49,57.05 C107.44,57.05 106.59,57.9 106.59,58.95 L106.59,67.67 C106.59,68.72 107.44,69.57 108.49,69.57 L124,69.57 L124,57.05 L108.49,57.05 Z" fill="#E04E2C"/>
  <path d="M19.52,92.41 L4,92.41 L4,104.94 L19.52,104.94 C20.57,104.94 21.42,104.09 21.42,103.04 L21.42,94.32 C21.42,93.26 20.57,92.41 19.52,92.41 Z" fill="#BF360C"/>
  <path d="M60.42,104.94 L26.69,104.94 C25.64,104.94 24.79,104.09 24.79,103.04 L24.79,94.32 C24.79,93.27 25.64,92.42 26.69,92.42 L60.43,92.42 C61.48,92.42 62.33,93.27 62.33,94.32 L62.33,103.04 C62.32,104.09 61.47,104.94 60.42,104.94 Z" fill="#E04E2C"/>
  <path d="M101.32,104.94 L67.59,104.94 C66.54,104.94 65.69,104.09 65.69,103.04 L65.69,94.32 C65.69,93.27 66.54,92.42 67.59,92.42 L101.33,92.42 C102.38,92.42 103.23,93.27 103.23,94.32 L103.23,103.04 C103.22,104.09 102.37,104.94 101.32,104.94 Z" fill="#E04E2C"/>
  <path d="M108.49,92.41 C107.44,92.41 106.59,93.26 106.59,94.31 L106.59,103.03 C106.59,104.08 107.44,104.93 108.49,104.93 L124,104.93 L124,92.41 L108.49,92.41 Z" fill="#FF7043"/>
</svg>
